logos/fortran.svg

<?xml version="1.0" encoding="UTF-8"?>
<svg width="256px" height="256px" viewBox="0 0 256 256" version="1.1" xmlns="http://www.w3.org/2000/svg" preserveAspectRatio="xMidYMid">
    <title>Fortran</title>
    <g>
        <path d="M48,0 L208,0 C234.509668,0 256,21.490332 256,48 L256,208 C256,234.509668 234.509668,256 208,256 L48,256 C21.490332,256 0,234.509668 0,208 L0,48 C0,21.490332 21.490332,0 48,0 Z" fill="#734F96"></path>
        <path d="M34.8922061,216.951238 C34.8922061,206.772132 34.9713954,205.865312 35.8620774,205.846402 C36.3955063,205.836162 41.6590985,205.599618 47.5589461,205.322865 C57.060055,204.877356 58.576797,204.673853 60.8310477,203.542231 C62.6133675,202.647528 63.7170517,201.600181 64.5135906,200.047763 C65.6430251,197.846504 65.6510327,197.337405 65.6510327,127.72295 C65.6510327,62.3066214 65.5868621,57.4977365 64.6922308,55.8627396 C63.4809071,53.6489813 61.3797239,51.9858688 58.797783,51.1972113 C57.6899959,50.8588476 51.8580531,50.4491554 45.8379127,50.2868105 L34.8922061,49.9916254 L34.8922061,38.9781163 L34.8922061,27.9645969 L128.000007,27.9645969 L221.107801,27.9645969 L221.107801,69.2534716 L221.107801,110.542346 L211.27054,110.487084 C205.860031,110.456706 200.809766,110.258425 200.047705,110.046495 C198.685307,109.667584 198.651105,109.51822 197.998135,101.095779 C197.160059,90.2859435 196.474969,85.4989141 194.737036,78.3084476 C190.97957,62.7625506 183.051284,54.3054541 170.104784,52.0332459 C164.672942,51.0799189 140.974466,50.1588002 121.488005,50.1435972 L108.048329,50.1330159 L108.048329,81.1777297 L108.048329,112.222444 L115.114551,111.871966 C123.19345,111.471254 129.544144,110.495642 132.609683,109.184297 C135.87457,107.787674 139.322003,104.259625 140.935895,100.663398 C142.622013,96.9061854 143.725271,91.9687031 144.610656,84.2171221 C144.95885,81.1689506 145.358961,78.11385 145.499829,77.4280124 C145.754805,76.1862861 145.801568,76.181033 156.552554,76.181033 L167.349132,76.181033 L167.349132,125.783101 L167.349132,175.385167 L156.346491,175.385167 L145.343874,175.385167 L144.973937,169.663123 C144.304002,159.301267 142.286415,149.488138 139.861992,144.799857 C136.548021,138.391255 130.025687,135.510439 116.915743,134.664728 C114.01998,134.477916 110.823438,134.196818 109.812313,134.040047 L107.973905,133.754999 L108.188672,164.961563 C108.415181,197.875961 108.513382,199.162003 111.011072,201.920249 C113.579124,204.756217 115.076499,204.951016 141.162575,205.843159 C141.692904,205.860226 141.855345,208.465828 141.855345,216.951136 L141.855345,228.035389 L88.3737668,228.035389 L34.8922061,228.035389 L34.8922061,216.951238 Z" fill="#FFFFFF"></path>
    </g>
</svg>

<svg preserveAspectRatio="xMidYMid" viewBox="0 0 256 256" xmlns="http://www.w3.org/2000/svg">
  <path fill="#734F96" d="M48 0h160c26.51 0 48 21.49 48 48v160c0 26.51-21.49 48-48 48H48c-26.51 0-48-21.49-48-48V48C0 21.49 21.49 0 48 0Z"/>
  <path fill="#FFF" d="M34.892 216.951c0-10.179.08-11.086.97-11.105.534-.01 5.797-.246 11.697-.523 9.501-.446 11.018-.65 13.272-1.78 1.782-.895 2.886-1.943 3.683-3.495 1.129-2.201 1.137-2.71 1.137-72.325 0-65.416-.064-70.225-.959-71.86-1.211-2.214-3.312-3.877-5.894-4.666-1.108-.338-6.94-.748-12.96-.91l-10.946-.295V27.965h186.216v82.578l-9.837-.056c-5.411-.03-10.461-.229-11.223-.44-1.363-.38-1.397-.529-2.05-8.951-.838-10.81-1.523-15.597-3.261-22.788-3.757-15.545-11.686-24.003-24.632-26.275-5.432-.953-29.13-1.874-48.617-1.89l-13.44-.01v62.089l7.067-.35c8.078-.4 14.43-1.376 17.495-2.688 3.265-1.396 6.712-4.924 8.326-8.52 1.686-3.758 2.79-8.695 3.675-16.447.348-3.048.748-6.103.889-6.789.255-1.242.302-1.247 11.053-1.247h10.796v99.204h-22.005l-.37-5.722c-.67-10.362-2.688-20.175-5.112-24.863-3.314-6.409-9.836-9.29-22.946-10.135-2.896-.187-6.093-.468-7.104-.625l-1.838-.285.215 31.207c.226 32.914.324 34.2 2.822 36.958 2.568 2.836 4.065 3.031 30.152 3.923.53.017.692 2.623.692 11.108v11.084H34.892v-11.084Z"/>
</svg>
